Numix-GalliumOS/32/mimetypes/text-x-iptables.svg

<?xml version="1.0" encoding="UTF-8" standalone="no"?>
<svg
   xmlns:dc="http://purl.org/dc/elements/1.1/"
   xmlns:cc="http://creativecommons.org/ns#"
   xmlns:rdf="http://www.w3.org/1999/02/22-rdf-syntax-ns#"
   xmlns:svg="http://www.w3.org/2000/svg"
   xmlns="http://www.w3.org/2000/svg"
   xmlns:sodipodi="http://sodipodi.sourceforge.net/DTD/sodipodi-0.dtd"
   xmlns:inkscape="http://www.inkscape.org/namespaces/inkscape"
   width="32"
   height="32"
   viewBox="0 0 32 32"
   id="svg2"
   version="1.1"
   inkscape:version="0.91 r13725"
   sodipodi:docname="text-x-iptables.svg">
  <metadata
     id="metadata30">
    <rdf:RDF>
      <cc:Work
         rdf:about="">
        <dc:format>image/svg+xml</dc:format>
        <dc:type
           rdf:resource="http://purl.org/dc/dcmitype/StillImage" />
        <dc:title />
      </cc:Work>
    </rdf:RDF>
  </metadata>
  <defs
     id="defs28" />
  <sodipodi:namedview
     pagecolor="#ffffff"
     bordercolor="#666666"
     borderopacity="1"
     objecttolerance="10"
     gridtolerance="10"
     guidetolerance="10"
     inkscape:pageopacity="0"
     inkscape:pageshadow="2"
     inkscape:window-width="1366"
     inkscape:window-height="717"
     id="namedview26"
     showgrid="false"
     inkscape:zoom="1"
     inkscape:cx="10.98649"
     inkscape:cy="14.890161"
     inkscape:window-x="0"
     inkscape:window-y="26"
     inkscape:window-maximized="1"
     inkscape:current-layer="svg2">
    <inkscape:grid
       type="xygrid"
       id="grid3060" />
  </sodipodi:namedview>
  <path
     style="fill:#2d2d2d;fill-opacity:1"
     d="M 5.335888,2.97e-4 C 4.648414,3.12e-4 4,0.676788 4,1.394031 L 4,30.606268 C 4,31.282757 4.687474,32 5.335888,32 l 21.327333,0 c 0.648413,0 1.335888,-0.717243 1.335888,-1.393732 L 28.000001,8.9999996 19.000001,0 z"
     id="path4-1"
     inkscape:connector-curvature="0"
     sodipodi:nodetypes="ssssssccs" />
  <path
     style="fill:#000000;fill-opacity:0.19599998"
     d="M 21,8.9999996 28,16 28,8.9999996 z"
     id="path6-4"
     inkscape:connector-curvature="0"
     sodipodi:nodetypes="cccc" />
  <path
     style="fill:#ffffff;fill-opacity:0.39200003"
     d="m 19.000306,2.97e-4 8.991594,8.9997026 -7.613262,0 c -0.67295,0 -1.378332,-0.7134896 -1.378332,-1.3864402 z"
     id="path8-6"
     inkscape:connector-curvature="0"
     sodipodi:nodetypes="ccssc" />
  <path
     inkscape:connector-curvature="0"
     style="fill:#ef9815;fill-opacity:1;fill-rule:nonzero;stroke:none"
     d="m 14.014558,10 c -0.28862,0.4146 -0.522432,1.836084 0.312252,2.538748 0.986036,0.841584 1.196216,1.852776 1.196216,3.3841 0,2.153764 -1.699038,3.87839 -0.502824,5.92285 -3.339242,-2.944732 0.02564,-7.363716 -2.51411,-9.153494 1.005644,2.692204 -2.5141142,4.307526 -2.506068,6.920042 -0.008,2.771894 2.003244,4.387216 4.417296,4.381294 C 12.69666,23.244568 11.914772,20.983654 12.003268,19.692474 13.21306,22.628592 15.020202,24 18.037138,24 16.87411,22.373908 16.684042,22.168224 16.617166,21.13334 c 0.006,-0.954654 0.365552,-1.167338 0.99408,-2.36214 1.581378,-2.656666 0.858318,-5.338102 -1.294264,-6.589438 -0.437958,-0.233682 -0.555618,-0.298834 -1.353096,-0.633206 -0.459578,-0.229376 -0.917148,-0.727972 -0.948824,-1.548018 m 5.393774,4.498674 c 1.594954,2.185532 -0.221744,3.960232 -1.05492,5.298258 -0.683336,1.051574 -0.02564,2.791276 0.68937,4.20253 0.06286,-1.192646 0.80552,-2.012692 1.406394,-2.439676 1.84033,-1.482866 1.89916,-3.421792 0.923182,-5.146956 -0.612942,-0.946578 -1.154984,-1.25349 -1.964026,-1.914156 m 0,0"
     id="path64" />
</svg>

<svg xmlns="http://www.w3.org/2000/svg" viewBox="0 0 32 32">
 <path d="m 5.336 0 c -0.687 0 -1.336 0.676 -1.336 1.394 l 0 29.21 c 0 0.676 0.687 1.394 1.336 1.394 l 21.327 0 c 0.648 0 1.336 -0.717 1.336 -1.394 l 0.001 -21.606 -9 -9 z" style="fill:#2d2d2d;fill-opacity:1"/>
 <path d="m 21 9 7 7 0 -7 z" style="fill:#000;fill-opacity:0.196"/>
 <path d="m 19 0 8.992 9 -7.613 0 c -0.673 0 -1.378 -0.713 -1.378 -1.386 z" style="fill:#fff;fill-opacity:0.392"/>
 <path d="m 14.01 10 c -0.289 0.415 -0.522 1.836 0.312 2.539 0.986 0.842 1.196 1.853 1.196 3.384 0 2.154 -1.699 3.878 -0.503 5.923 -3.339 -2.945 0.026 -7.364 -2.514 -9.153 1.01 2.692 -2.514 4.308 -2.506 6.92 -0.008 2.772 2 4.387 4.417 4.381 c -1.721 -0.749 -2.503 -3.01 -2.414 -4.301 1.21 2.936 3.02 4.308 6.03 4.308 -1.163 -1.626 -1.353 -1.832 -1.42 -2.867 c 0.006 -0.955 0.366 -1.167 0.994 -2.362 1.581 -2.657 0.858 -5.338 -1.294 -6.589 -0.438 -0.234 -0.556 -0.299 -1.353 -0.633 -0.46 -0.229 -0.917 -0.728 -0.949 -1.548 m 5.394 4.499 c 1.595 2.186 -0.222 3.96 -1.055 5.298 -0.683 1.052 -0.026 2.791 0.689 4.203 0.063 -1.193 0.806 -2.01 1.406 -2.44 1.84 -1.483 1.899 -3.422 0.923 -5.147 -0.613 -0.947 -1.155 -1.253 -1.964 -1.914 m 0 0" style="fill:#ef9815;fill-opacity:1;stroke:none;fill-rule:nonzero"/>
</svg>
